img/icons/plus.svg

<svg width="20" height="20" viewBox="0 0 20 20" fill="none" xmlns="http://www.w3.org/2000/svg">
<path d="M9.41406 2.96875H10.5859C10.6901 2.96875 10.7422 3.02083 10.7422 3.125V16.875C10.7422 16.9792 10.6901 17.0312 10.5859 17.0312H9.41406C9.3099 17.0312 9.25781 16.9792 9.25781 16.875V3.125C9.25781 3.02083 9.3099 2.96875 9.41406 2.96875Z" fill="white"/>
<path d="M3.4375 9.25781H16.5625C16.6667 9.25781 16.7188 9.3099 16.7188 9.41406V10.5859C16.7188 10.6901 16.6667 10.7422 16.5625 10.7422H3.4375C3.33333 10.7422 3.28125 10.6901 3.28125 10.5859V9.41406C3.28125 9.3099 3.33333 9.25781 3.4375 9.25781Z" fill="white"/>
</svg>

<svg width="20" height="20" fill="none" xmlns="http://www.w3.org/2000/svg"><path d="M9.414 2.969h1.172c.104 0 .156.052.156.156v13.75c0 .104-.052.156-.156.156H9.414c-.104 0-.156-.052-.156-.156V3.125c0-.104.052-.156.156-.156z" fill="#fff"/><path d="M3.438 9.258h13.124c.105 0 .157.052.157.156v1.172c0 .104-.052.156-.157.156H3.438c-.104 0-.156-.052-.156-.156V9.414c0-.104.052-.156.156-.156z" fill="#fff"/></svg>
